source/img/src/crop-tablet.svg

<svg width="22" height="22" viewBox="0 0 22 22" fill="none" xmlns="http://www.w3.org/2000/svg">
<path d="M16 14H18V6C18 5.46957 17.7893 4.96086 17.4142 4.58579C17.0391 4.21071 16.5304 4 16 4H8V6H16V14ZM6 16V0H4V4H0V6H4V16C4 16.5304 4.21071 17.0391 4.58579 17.4142C4.96086 17.7893 5.46957 18 6 18H16V22H18V18H22V16H6Z" fill="#D22856"/>
</svg>

<svg width="22" height="22" fill="none" xmlns="http://www.w3.org/2000/svg"><path d="M16 14h2V6a2 2 0 00-2-2H8v2h8v8zM6 16V0H4v4H0v2h4v10a2 2 0 002 2h10v4h2v-4h4v-2H6z" fill="#D22856"/></svg>
